X:1
T:The Gospel Bells
T:The Gospel Bells
T:Daniel O. Teasley
T:Opal F. Brookover
T:PUBLIC DOMAIN
T:PUBLIC DOMAIN
C:Daniel O. Teasley
Z:Opal F. Brookover
Z:PUBLIC DOMAIN
%%score ( 1 2 ) ( 3 4 )
L:1/8
Q:1/4=110
M:4/4
K:Ab
V:1 treble nm="Treble"
V:2 treble 
V:3 bass nm="Bass"
V:4 bass 
V:1
 [CE]2 | [CA]2 [CA]2 (A E) (A B) | [Ec]3 [Ee] [Ec]2 [CA]2 | [DB]3 [CA] [DB]2 [Ec]2 | %4
w: 1.~The|gos- pel bells * ring *|joy- ful- ly A-|cross the land, a-|
w: 2.~The|gos- pel bells * in *|mus- ic tell The|sto- ry that we|
w: 3.~Ring|out un- til * the *|truth is heard, That|Je- sus gave His|
w: 4.~Ring|out, glad gos- _ pel *|bells, a- gain, Re-|peat the ev- er-|
 [CA]3 [DB] [Ec]2 | [CE]2 | [CA]2 [CA]2 (A E) (A B) | [Ec]3 [Ee] [Ec]2 [CA]2 | %8
w: cross the sea,|Now|soft and low, * now *|loud and strong, They|
w: love so well,|Of|“peace on earth, * good- _|will to men”: Ring|
w: life, His word,|To|ran- som all, * both *|you and me— Oh,|
w: last- ing strain,|Till,|all re- deemed * on *|yon- der shore, We|
 [DB]3 [CA] (([DB] [Fd])) (([Ec] [DB])) | [CA]2 [DG]2 [CA]2 ||"^Refrain" [Ac]2 | e6 [Ac]2 | %12
w: chant to us * a *|hap- py song.|Ring|out, glad|
w: out, sweet bells, * ring *|out a- gain.|||
w: bless- ed, bless- _ ed *|vic- to- ry.|||
w: sing “good- will” * for- _|ev- er- more.|||
 e6 [ce]2 | [df] [ce] [Bd] [Ac] [GB]2 [Ac]2 | B6 | [CE]2 | [CA]2 [CA]2 (A E) (A B) | %17
w: bells, How|joy- ful- ly your mus- ic|tells|The|bless- ed sto- _ ry *|
w: |||||
w: |||||
w: |||||
 [Ec]3 [Ee] [Ec]2 [CA]2 | [DB]3 [CA] (([DB] [Fd])) (([Ec] [DB])) | [CA]2 [DG]2 [CA]2 |] %20
w: of the free, Of|peace and joy * and *|lib- er- ty.|
w: |||
w: |||
w: |||
V:2
 x2 | z4 C2 E2 | x8 | x8 | x6 | x2 | z4 C2 E2 | x8 | x8 | x6 || x2 | c2 B2 A2 z2 | c2 d2 c2 z2 | %13
 x8 | (G3 A G2) | z2 | z4 C2 E2 | x8 | x8 | x6 |] %20
V:3
 [A,,A,]2 | [A,,E,]2 [A,,E,]2 [A,,A,]2 (([C,A,] [E,G,])) | A,3 [A,C] A,2 A,2 | %3
w: |||
 [E,G,]3 [E,A,] [E,G,]2 [E,G,]2 | [A,,A,]3 [A,,A,] [A,,A,]2 | [A,,A,]2 | %6
w: |||
 [A,,E,]2 [A,,E,]2 [A,,A,]2 (([C,A,] [E,G,])) | A,3 [A,C] A,2 A,2 | %8
w: ||
 [E,G,]3 [E,A,] [E,G,]2 (A, G,) | [E,A,]2 [E,B,]2 [A,,A,]2 || z2 | z2 [E,D]2 [A,C]2 z2 | %12
w: |||glad bells,|
 z2 [E,E]2 [A,E]2 z2 | z8 | z6 | [A,,A,]2 | [A,,E,]2 [A,,E,]2 [A,,A,]2 (([C,A,] [E,G,])) | %17
w: glad bells,|||||
 A,3 [A,C] A,2 A,2 | [E,G,]3 [E,A,] [E,G,]2 (A, G,) | [E,A,]2 [E,B,]2 [A,,A,]2 |] %20
w: |||
V:4
 x2 | x8 | A,3 z A,2 A,2 | x8 | x6 | x2 | x8 | A,3 z A,2 A,2 | z4 z2 E,2 | x6 || x2 | x8 | x8 | %13
 x8 | x6 | x2 | x8 | A,3 z A,2 A,2 | z4 z2 E,2 | x6 |] %20

